src/assets/duotone/Import.svg

<svg width="24" height="24" viewBox="0 0 24 24"  xmlns="http://www.w3.org/2000/svg">
<path opacity="0.4" d="M22 10.7599C22 10.2899 21.62 9.8999 21.14 9.8999H2.86C2.38 9.8999 2 10.2799 2 10.7599C2 16.6499 6.11 20.7599 12 20.7599C17.89 20.7599 22 16.6399 22 10.7599Z" />
<path d="M12.4598 15.9L15.3098 13.06C15.5998 12.77 15.5998 12.29 15.3098 12C15.0198 11.71 14.5398 11.71 14.2498 12L12.6898 13.56V3.98999C12.6898 3.57999 12.3498 3.23999 11.9398 3.23999C11.5298 3.23999 11.1898 3.57999 11.1898 3.98999V13.56L9.61984 12C9.32984 11.71 8.84984 11.71 8.55984 12C8.40984 12.15 8.33984 12.34 8.33984 12.53C8.33984 12.72 8.40984 12.91 8.55984 13.06L11.4098 15.9C11.6998 16.2 12.1698 16.2 12.4598 15.9Z" />
</svg>

<?xml version="1.0" encoding="UTF-8"?>
<svg width="24" height="24" viewBox="0 0 24 24" xmlns="http://www.w3.org/2000/svg">
 <path d="m22 10.76c0-0.47-0.38-0.86-0.86-0.86h-18.28c-0.48 0-0.86 0.38-0.86 0.86 0 5.89 4.11 10 10 10s10-4.12 10-10z" opacity=".4"/>
 <path d="m12.46 15.9 2.85-2.84c0.29-0.29 0.29-0.77 0-1.06s-0.77-0.29-1.06 0l-1.56 1.56v-9.57c0-0.41-0.34-0.75-0.75-0.75s-0.75 0.34-0.75 0.75v9.57l-1.57-1.56c-0.29-0.29-0.77-0.29-1.06 0-0.15 0.15-0.22 0.34-0.22 0.53s0.07 0.38 0.22 0.53l2.85 2.84c0.29 0.3 0.76 0.3 1.05 0z"/>
</svg>
